X:5224
T:Port Gan Ainm
O:england
R:jig
M:6/8
L:1/8
K:Amix
cBA BAG|AGE GED|EAA ABd|eaf ged|
cBA BAG|AGE GED|EAA ABd|edB A3:|
|:eaa age|~a3 age|~g3 ged|gba ged|
eaa age|~a3 age|~g3 aga|b2a ged:|


